Newaita-dark/apps/48/com.github.timecraft.notifier.svg

<svg height="48" viewBox="0 0 48 48" width="48" xmlns="http://www.w3.org/2000/svg" xmlns:xlink="http://www.w3.org/1999/xlink"><linearGradient id="a" gradientUnits="userSpaceOnUse" x1="23.81478" x2="23.81478" y1="42.0509045" y2="44.03547050005"><stop offset="0" stop-opacity=".27451"/><stop offset="1" stop-opacity="0"/></linearGradient><linearGradient id="b"><stop offset="0" stop-opacity=".313726"/><stop offset=".222222" stop-opacity=".27451"/><stop offset="1" stop-opacity="0"/></linearGradient><radialGradient id="c" cx="450.908936" cy="189.579361" gradientTransform="matrix(.00000026 -.117199 -.210958 -.00000015 78.195972 95.392999)" gradientUnits="userSpaceOnUse" r="21.166656" xlink:href="#b"/><radialGradient id="d" cx="450.908936" cy="189.579361" gradientTransform="matrix(-.00000026 .117199 .210958 .00000015 -30.56642 -11.291218)" gradientUnits="userSpaceOnUse" r="21.166656" xlink:href="#b"/><radialGradient id="e" cx="450.908936" cy="189.579361" gradientTransform="matrix(-.00000026 -.117199 .210958 -.00000015 -30.56642 95.392999)" gradientUnits="userSpaceOnUse" r="21.166656" xlink:href="#b"/><radialGradient id="f" cx="450.908936" cy="189.579361" gradientTransform="matrix(.00000026 .117199 -.210958 .00000015 78.195969 -11.291219)" gradientUnits="userSpaceOnUse" r="21.166656" xlink:href="#b"/><linearGradient id="g" gradientUnits="userSpaceOnUse" x1="15.87652349995" x2="15.87652349995" y1="42.0509015" y2="4.3441580001"><stop offset="0" stop-color="#f44336"/><stop offset="1" stop-color="#ef5350"/></linearGradient><linearGradient id="h" gradientUnits="userSpaceOnUse" x1="23.866128" x2="23.866128" y1="40.06643880616" y2="8.31334966504"><stop offset="0" stop-color="#bdbdbd"/><stop offset="1" stop-color="#e0e0e0"/></linearGradient><path d="m8.929688 41.902344h29.769531v2.207031h-29.769531zm0 0" fill="url(#a)"/><path d="m38.699219 42.050781h3.96875v-1.984375h-3.96875zm0 0" fill="url(#c)"/><path d="m8.929688 42.050781h-3.96875v1.984375h3.96875zm0 0" fill="url(#d)"/><path d="m8.929688 42.050781h-3.96875v-1.984375h3.96875zm0 0" fill="url(#e)"/><path d="m38.699219 42.050781h3.96875v1.984375h-3.96875zm0 0" fill="url(#f)"/><path d="m6.945312 4.34375h33.738282c1.097656 0 1.984375.890625 1.984375 1.984375v33.738281c0 1.097656-.886719 1.984375-1.984375 1.984375h-33.738282c-1.09375 0-1.984374-.886719-1.984374-1.984375v-33.738281c0-1.09375.890624-1.984375 1.984374-1.984375zm0 0" fill="url(#g)"/><path d="m6.945312 4.34375c-1.097656 0-1.984374.886719-1.984374 1.984375v.25c0-1.101563.886718-1.988281 1.984374-1.984375h33.738282c1.097656-.003906 1.984375.882812 1.984375 1.984375v-.25c0-1.097656-.886719-1.984375-1.984375-1.984375zm0 0" fill="#e6e6e6" fill-opacity=".392157"/><path d="m6.945312 42.050781c-1.097656 0-1.984374-.886719-1.984374-1.984375v-.25c0 1.101563.886718 1.988282 1.984374 1.988282h33.738282c1.097656 0 1.984375-.886719 1.984375-1.988282v.25c0 1.097656-.886719 1.984375-1.984375 1.984375zm0 0" fill-opacity=".196078"/><path d="m74.076259-168.671091h359.840637c11.707216 0 21.164646 9.499093 21.164646 21.164646v359.840637c0 11.707215-9.45743 21.164645-21.164646 21.164645h-359.840637c-11.665552 0-21.164645-9.45743-21.164645-21.164645v-359.840637c0-11.665553 9.499093-21.164646 21.164645-21.164646zm0 0" fill="none" stroke="#212121" stroke-linecap="round" stroke-width="3" transform="matrix(.093759 0 0 .093759 0 20.158175)"/><path d="m21.882812 12.285156c-.578124 0-1.035156.488282-.988281 1.066406l.992188 12.898438c.039062.515625.46875.914062.988281.914062h1.984375c.515625 0 .945313-.398437.988281-.914062l.992188-12.898438c.042968-.578124-.414063-1.066406-.988282-1.066406zm1.984376 16.867188c-1.101563 0-1.984376.882812-1.984376 1.984375 0 1.097656.882813 1.984375 1.984376 1.984375 1.097656 0 1.984374-.886719 1.984374-1.984375 0-1.101563-.886718-1.984375-1.984374-1.984375zm0 0" fill="url(#h)"/><path d="m21.882812 12.285156c-.578124 0-1.035156.488282-.988281 1.066406l.03125.410157c.113281-.421875.496094-.734375.957031-.734375h3.96875c.460938 0 .84375.3125.957032.734375l.03125-.410157c.042968-.578124-.414063-1.066406-.988282-1.066406zm1.984376 16.867188c-1.101563 0-1.984376.882812-1.984376 1.984375 0 .125.011719.25.035157.371093.171875-.921874.976562-1.613281 1.949219-1.613281.972656 0 1.777343.691407 1.949218 1.613281.023438-.121093.035156-.246093.035156-.371093 0-1.101563-.886718-1.984375-1.984374-1.984375zm0 0" fill="#fff" fill-opacity=".86129"/><path d="m20.941406 13.957031c-.039062.121094-.058594.253907-.046875.386719l.992188 12.902344c.039062.515625.46875.914062.988281.914062h1.984375c.515625 0 .945313-.398437.988281-.914062l.992188-12.902344c.007812-.132812-.007813-.265625-.046875-.386719l-.945313 12.292969c-.042968.515625-.472656.914062-.988281.914062h-1.984375c-.519531 0-.949219-.398437-.988281-.914062zm1.003906 17.675781c-.042968.160157-.0625.324219-.0625.496094 0 1.101563.882813 1.984375 1.984376 1.984375 1.097656 0 1.984374-.882812 1.984374-1.984375 0-.171875-.023437-.335937-.0625-.496094-.21875.855469-.996093 1.488282-1.921874 1.488282-.929688 0-1.703126-.632813-1.921876-1.488282zm0 0" fill-opacity=".235294"/><path d="m233.394379-83.970846c-6.166078 0-11.040613 5.207836-10.54066 11.373914l10.582322 137.570196c.416627 5.499475 4.999523 9.749069 10.54066 9.749069h21.164646c5.499475 0 10.08237-4.249594 10.54066-9.749069l10.582323-137.570196c.458289-6.166078-4.416245-11.373914-10.54066-11.373914zm21.164645 179.899487c-11.748878 0-21.164645 9.415768-21.164645 21.164646 0 11.707215 9.415767 21.164645 21.164645 21.164645 11.707216 0 21.164646-9.45743 21.164646-21.164645 0-11.748878-9.45743-21.164646-21.164646-21.164646zm0 0" fill="none" stroke="#212121" stroke-linecap="round" stroke-linejoin="round" stroke-width="3" transform="matrix(.093759 0 0 .093759 0 20.158175)"/></svg>

<?xml version="1.0" encoding="UTF-8"?>
<svg xmlns="http://www.w3.org/2000/svg" xmlns:xlink="http://www.w3.org/1999/xlink" width="48px" height="48px" viewBox="0 0 48 48" version="1.1">
<defs>
<linearGradient id="linear0" gradientUnits="userSpaceOnUse" x1="254" y1="233.5" x2="254" y2="254.666672" gradientTransform="matrix(0.093759,0,0,0.093759,-0.00000572259,20.158178)">
<stop offset="0" style="stop-color:rgb(0%,0%,0%);stop-opacity:0.27451;"/>
<stop offset="1" style="stop-color:rgb(0%,0%,0%);stop-opacity:0;"/>
</linearGradient>
<radialGradient id="radial0" gradientUnits="userSpaceOnUse" cx="450.908936" cy="189.579361" fx="450.908936" fy="189.579361" r="21.166656" gradientTransform="matrix(0.000000261256,-0.117199,-0.210958,-0.000000152308,78.195972,95.392999)">
<stop offset="0" style="stop-color:rgb(0%,0%,0%);stop-opacity:0.313726;"/>
<stop offset="0.222222" style="stop-color:rgb(0%,0%,0%);stop-opacity:0.27451;"/>
<stop offset="1" style="stop-color:rgb(0%,0%,0%);stop-opacity:0;"/>
</radialGradient>
<radialGradient id="radial1" gradientUnits="userSpaceOnUse" cx="450.908936" cy="189.579361" fx="450.908936" fy="189.579361" r="21.166656" gradientTransform="matrix(-0.000000261256,0.117199,0.210958,0.000000152308,-30.56642,-11.291218)">
<stop offset="0" style="stop-color:rgb(0%,0%,0%);stop-opacity:0.313726;"/>
<stop offset="0.222222" style="stop-color:rgb(0%,0%,0%);stop-opacity:0.27451;"/>
<stop offset="1" style="stop-color:rgb(0%,0%,0%);stop-opacity:0;"/>
</radialGradient>
<radialGradient id="radial2" gradientUnits="userSpaceOnUse" cx="450.908936" cy="189.579361" fx="450.908936" fy="189.579361" r="21.166656" gradientTransform="matrix(-0.000000261256,-0.117199,0.210958,-0.000000152308,-30.56642,95.392999)">
<stop offset="0" style="stop-color:rgb(0%,0%,0%);stop-opacity:0.313726;"/>
<stop offset="0.222222" style="stop-color:rgb(0%,0%,0%);stop-opacity:0.27451;"/>
<stop offset="1" style="stop-color:rgb(0%,0%,0%);stop-opacity:0;"/>
</radialGradient>
<radialGradient id="radial3" gradientUnits="userSpaceOnUse" cx="450.908936" cy="189.579361" fx="450.908936" fy="189.579361" r="21.166656" gradientTransform="matrix(0.000000261256,0.117199,-0.210958,0.000000152308,78.195969,-11.291219)">
<stop offset="0" style="stop-color:rgb(0%,0%,0%);stop-opacity:0.313726;"/>
<stop offset="0.222222" style="stop-color:rgb(0%,0%,0%);stop-opacity:0.27451;"/>
<stop offset="1" style="stop-color:rgb(0%,0%,0%);stop-opacity:0;"/>
</radialGradient>
<linearGradient id="linear1" gradientUnits="userSpaceOnUse" x1="169.333328" y1="233.5" x2="169.333328" y2="-168.666656" gradientTransform="matrix(0.093759,0,0,0.093759,0,20.158175)">
<stop offset="0" style="stop-color:rgb(95.686275%,26.274511%,21.176471%);stop-opacity:1;"/>
<stop offset="1" style="stop-color:rgb(93.725491%,32.549021%,31.37255%);stop-opacity:1;"/>
</linearGradient>
<linearGradient id="linear2" gradientUnits="userSpaceOnUse" x1="960" y1="1455.118164" x2="960" y2="175.118118" gradientTransform="matrix(0.0248071,0,0,0.0248071,0.0513115,3.969177)">
<stop offset="0" style="stop-color:rgb(74.117649%,74.117649%,74.117649%);stop-opacity:1;"/>
<stop offset="1" style="stop-color:rgb(87.843138%,87.843138%,87.843138%);stop-opacity:1;"/>
</linearGradient>
</defs>
<g id="surface1">
<path style=" stroke:none;fill-rule:nonzero;fill:url(#linear0);" d="M 8.929688 41.902344 L 38.699219 41.902344 L 38.699219 44.109375 L 8.929688 44.109375 Z M 8.929688 41.902344 "/>
<path style=" stroke:none;fill-rule:nonzero;fill:url(#radial0);" d="M 38.699219 42.050781 L 42.667969 42.050781 L 42.667969 40.066406 L 38.699219 40.066406 Z M 38.699219 42.050781 "/>
<path style=" stroke:none;fill-rule:nonzero;fill:url(#radial1);" d="M 8.929688 42.050781 L 4.960938 42.050781 L 4.960938 44.035156 L 8.929688 44.035156 Z M 8.929688 42.050781 "/>
<path style=" stroke:none;fill-rule:nonzero;fill:url(#radial2);" d="M 8.929688 42.050781 L 4.960938 42.050781 L 4.960938 40.066406 L 8.929688 40.066406 Z M 8.929688 42.050781 "/>
<path style=" stroke:none;fill-rule:nonzero;fill:url(#radial3);" d="M 38.699219 42.050781 L 42.667969 42.050781 L 42.667969 44.035156 L 38.699219 44.035156 Z M 38.699219 42.050781 "/>
<path style=" stroke:none;fill-rule:nonzero;fill:url(#linear1);" d="M 6.945312 4.34375 L 40.683594 4.34375 C 41.78125 4.34375 42.667969 5.234375 42.667969 6.328125 L 42.667969 40.066406 C 42.667969 41.164062 41.78125 42.050781 40.683594 42.050781 L 6.945312 42.050781 C 5.851562 42.050781 4.960938 41.164062 4.960938 40.066406 L 4.960938 6.328125 C 4.960938 5.234375 5.851562 4.34375 6.945312 4.34375 Z M 6.945312 4.34375 "/>
<path style=" stroke:none;fill-rule:nonzero;fill:rgb(90.196079%,90.196079%,90.196079%);fill-opacity:0.392157;" d="M 6.945312 4.34375 C 5.847656 4.34375 4.960938 5.230469 4.960938 6.328125 L 4.960938 6.578125 C 4.960938 5.476562 5.847656 4.589844 6.945312 4.59375 L 40.683594 4.59375 C 41.78125 4.589844 42.667969 5.476562 42.667969 6.578125 L 42.667969 6.328125 C 42.667969 5.230469 41.78125 4.34375 40.683594 4.34375 Z M 6.945312 4.34375 "/>
<path style=" stroke:none;fill-rule:nonzero;fill:rgb(0%,0%,0%);fill-opacity:0.196078;" d="M 6.945312 42.050781 C 5.847656 42.050781 4.960938 41.164062 4.960938 40.066406 L 4.960938 39.816406 C 4.960938 40.917969 5.847656 41.804688 6.945312 41.804688 L 40.683594 41.804688 C 41.78125 41.804688 42.667969 40.917969 42.667969 39.816406 L 42.667969 40.066406 C 42.667969 41.164062 41.78125 42.050781 40.683594 42.050781 Z M 6.945312 42.050781 "/>
<path style="fill:none;stroke-width:3;stroke-linecap:round;stroke-linejoin:miter;stroke:rgb(12.941177%,12.941177%,12.941177%);stroke-opacity:1;stroke-miterlimit:4;" d="M 74.076259 -168.671091 L 433.916896 -168.671091 C 445.624112 -168.671091 455.081542 -159.171998 455.081542 -147.506445 L 455.081542 212.334192 C 455.081542 224.041407 445.624112 233.498837 433.916896 233.498837 L 74.076259 233.498837 C 62.410707 233.498837 52.911614 224.041407 52.911614 212.334192 L 52.911614 -147.506445 C 52.911614 -159.171998 62.410707 -168.671091 74.076259 -168.671091 Z M 74.076259 -168.671091 " transform="matrix(0.093759,0,0,0.093759,0,20.158175)"/>
<path style=" stroke:none;fill-rule:nonzero;fill:url(#linear2);" d="M 21.882812 12.285156 C 21.304688 12.285156 20.847656 12.773438 20.894531 13.351562 L 21.886719 26.25 C 21.925781 26.765625 22.355469 27.164062 22.875 27.164062 L 24.859375 27.164062 C 25.375 27.164062 25.804688 26.765625 25.847656 26.25 L 26.839844 13.351562 C 26.882812 12.773438 26.425781 12.285156 25.851562 12.285156 Z M 23.867188 29.152344 C 22.765625 29.152344 21.882812 30.035156 21.882812 31.136719 C 21.882812 32.234375 22.765625 33.121094 23.867188 33.121094 C 24.964844 33.121094 25.851562 32.234375 25.851562 31.136719 C 25.851562 30.035156 24.964844 29.152344 23.867188 29.152344 Z M 23.867188 29.152344 "/>
<path style=" stroke:none;fill-rule:nonzero;fill:rgb(100%,100%,100%);fill-opacity:0.86129;" d="M 21.882812 12.285156 C 21.304688 12.285156 20.847656 12.773438 20.894531 13.351562 L 20.925781 13.761719 C 21.039062 13.339844 21.421875 13.027344 21.882812 13.027344 L 25.851562 13.027344 C 26.3125 13.027344 26.695312 13.339844 26.808594 13.761719 L 26.839844 13.351562 C 26.882812 12.773438 26.425781 12.285156 25.851562 12.285156 Z M 23.867188 29.152344 C 22.765625 29.152344 21.882812 30.035156 21.882812 31.136719 C 21.882812 31.261719 21.894531 31.386719 21.917969 31.507812 C 22.089844 30.585938 22.894531 29.894531 23.867188 29.894531 C 24.839844 29.894531 25.644531 30.585938 25.816406 31.507812 C 25.839844 31.386719 25.851562 31.261719 25.851562 31.136719 C 25.851562 30.035156 24.964844 29.152344 23.867188 29.152344 Z M 23.867188 29.152344 "/>
<path style=" stroke:none;fill-rule:nonzero;fill:rgb(0%,0%,0%);fill-opacity:0.235294;" d="M 20.941406 13.957031 C 20.902344 14.078125 20.882812 14.210938 20.894531 14.34375 L 21.886719 27.246094 C 21.925781 27.761719 22.355469 28.160156 22.875 28.160156 L 24.859375 28.160156 C 25.375 28.160156 25.804688 27.761719 25.847656 27.246094 L 26.839844 14.34375 C 26.847656 14.210938 26.832031 14.078125 26.792969 13.957031 L 25.847656 26.25 C 25.804688 26.765625 25.375 27.164062 24.859375 27.164062 L 22.875 27.164062 C 22.355469 27.164062 21.925781 26.765625 21.886719 26.25 Z M 21.945312 31.632812 C 21.902344 31.792969 21.882812 31.957031 21.882812 32.128906 C 21.882812 33.230469 22.765625 34.113281 23.867188 34.113281 C 24.964844 34.113281 25.851562 33.230469 25.851562 32.128906 C 25.851562 31.957031 25.828125 31.792969 25.789062 31.632812 C 25.570312 32.488281 24.792969 33.121094 23.867188 33.121094 C 22.9375 33.121094 22.164062 32.488281 21.945312 31.632812 Z M 21.945312 31.632812 "/>
<path style="fill:none;stroke-width:3;stroke-linecap:round;stroke-linejoin:round;stroke:rgb(12.941177%,12.941177%,12.941177%);stroke-opacity:1;stroke-miterlimit:4;" d="M 233.394379 -83.970846 C 227.228301 -83.970846 222.353766 -78.76301 222.853719 -72.596932 L 233.436041 64.973264 C 233.852668 70.472739 238.435564 74.722333 243.976701 74.722333 L 265.141347 74.722333 C 270.640822 74.722333 275.223717 70.472739 275.682007 64.973264 L 286.26433 -72.596932 C 286.722619 -78.76301 281.848085 -83.970846 275.72367 -83.970846 Z M 254.559024 95.928641 C 242.810146 95.928641 233.394379 105.344409 233.394379 117.093287 C 233.394379 128.800502 242.810146 138.257932 254.559024 138.257932 C 266.26624 138.257932 275.72367 128.800502 275.72367 117.093287 C 275.72367 105.344409 266.26624 95.928641 254.559024 95.928641 Z M 254.559024 95.928641 " transform="matrix(0.093759,0,0,0.093759,0,20.158175)"/>
</g>
</svg>
